X: 750
T: Ertong fangshao
%%abc-version 2.0
%%abcx-abcm2ps-target-version 5.9.1 (29 Sep 2008)
%%abc-creator hum2abc beta
%%abcx-conversion-date 2013/10/02 07:52:30
%%abc-edited-by Helmut Schaffrath
%%humdrum-veritas 2657658917
%%humdrum-veritas-data 1870226388
%%continueall 1
%%barnumbers 0
L: 1/8
M: 2/4
K: F
f f/ d/ c f [I:setbarnb 1]| 
A GF2 | 
F> G A d | 
c4 | 
f f/ d/ c f/ f/ | 
A GF2 | 
F> G A d | 
cG2A/ G/ | 
F4 |]  



